packages/blockchain-info-components/src/Images/img/bc-logo.svg

<svg fill="none" height="48" viewBox="0 0 432 48" width="432" xmlns="http://www.w3.org/2000/svg" xmlns:xlink="http://www.w3.org/1999/xlink"><clipPath id="a"><path d="m0 0h432v48h-432z"/></clipPath><g clip-path="url(#a)"><path d="m4.10706 17.4439-2.18999 2.19c-.60615.5823-1.088401 1.2811-1.417833 2.0543-.329431.7733-.499237 1.6052-.499237 2.4457s.169806 1.6724.499237 2.4457c.329432.7733.811683 1.472 1.417833 2.0543l17.64293 17.8171c.4182.4278.9049.7826 1.44 1.05v-21.5971z" fill="#3d89f5"/><path d="m43.8929 17.4439 2.19 2.19c.6062.5823 1.0884 1.2811 1.4179 2.0543.3294.7733.4992 1.6052.4992 2.4457s-.1698 1.6724-.4992 2.4457c-.3295.7733-.8117 1.472-1.4179 2.0543l-17.6429 17.8171c-.4182.4278-.9049.7826-1.44 1.05v-21.5971z" fill="#1656b9"/><path d="m39.6569 12.9739-11.04-11.06999c-.5845-.60239-1.2839-1.081317-2.0569-1.408358s-1.6038-.495552-2.4431-.495552-1.6702.168511-2.4431.495552c-.773.327041-1.4725.805968-2.0569 1.408358l-11.07002 11.06999 15.51002 7.74z" fill="#85b5f8"/><g clip-rule="evenodd" fill-rule="evenodd"><path d="m279.84 7.75814c-.048-.80952.148-1.61482.563-2.31164.415-.69681 1.029-1.25306 1.763-1.59672.735-.34365 1.556-.45889 2.357-.33079.8.12811 1.544.49365 2.135 1.0493.59.55565 1.001 1.27583 1.177 2.06728.177.79145.112 1.61773-.186 2.37185s-.816 1.40138-1.486 1.85788c-.67.4566-1.462.7014-2.273.7028-.516.016-1.03-.0698-1.513-.2527-.483-.1828-.926-.4591-1.302-.8129-.376-.3539-.679-.77836-.89-1.24925-.212-.47089-.33-.97894-.345-1.49511zm.3 7.28996h7.47v27h-7.47zm-199.74-8.99996h-14.4v35.99996h15.42c8.07 0 12.39-4.23 12.39-9.96.106-2.2075-.6685-4.3669-2.1535-6.0038s-3.559-2.6174-5.7665-2.7262v-.36c1.8384-.283 3.5116-1.2236 4.7089-2.6471s1.8373-3.2331 1.8011-5.0929c0-5.36996-4.05-9.20996-12-9.20996zm4.29 10.43996c0 2.85-2.43 4.56-5.43 4.56l-5.76.09v-9h5.88c3.39 0 5.31 1.5 5.31 4.35zm1.11 14.79c0 2.7-1.74 4.47-6 4.47h-6.3v-9.54h6.3c.7347-.1062 1.4836-.0555 2.1972.1489.7136.2045 1.3758.5579 1.9428 1.037s1.026 1.0731 1.3466 1.7426.4956 1.3994.5134 2.1415zm11.7 10.77h7.59l-.12-35.99996h-7.47zm11.52-13.4099c0-8.37 5.1-13.9501 13.29-13.9501s13.29 5.5801 13.29 13.9501-5.1 13.92-13.29 13.92-13.29-5.58-13.29-13.92zm18.96-.0149c-.004-4.7024-1.954-8.1752-5.64-8.1752-3.69 0-5.73 3.4801-5.73 8.1901s1.95 8.1599 5.73 8.1599c3.776 0 5.636-3.4725 5.64-8.1748zm23.7-13.9352c-8.19 0-13.26 5.6701-13.26 13.9501 0 8.22 4.98 13.92 13.26 13.92 7.11 0 11.64-4.2 12-10.41h-7.08c-.077 1.236-.629 2.3944-1.54 3.233-.912.8386-2.112 1.2926-3.35 1.267-3.51 0-5.76-3.09-5.76-8.1s2.28-8.01 5.76-8.01c1.238-.0257 2.438.4283 3.35 1.2669.911.8386 1.463 1.997 1.54 3.2331h7.08c-.24-6.24-4.95-10.3501-12-10.3501zm15.93-8.63996h7.5v19.22996h.39l8.67-10.23h8.58l-10.02 11.7 10.53 15.3h-8.76l-7.38-10.89-2.01 2.31v8.58h-7.5zm38.88 8.63996c-8.19 0-13.26 5.6701-13.26 13.9501 0 8.22 4.98 13.92 13.32 13.92 7.14 0 11.64-4.2 12-10.41h-7.05c-.085 1.2386-.643 2.3971-1.559 3.2351-.916.8379-2.12 1.2909-3.361 1.2649-3.51 0-5.76-3.09-5.76-8.1s2.28-8.01 5.76-8.01c1.241-.0261 2.445.4269 3.361 1.2648.916.838 1.474 1.9965 1.559 3.2352h6.99c-.21-6.24-4.95-10.3501-12-10.3501zm23.43 27.36h-7.47v-35.99996h7.26v13.76996h.33c.611-1.6119 1.727-2.9829 3.182-3.9076 1.454-.9247 3.169-1.3536 4.888-1.2224 5.61 0 9.33 3.84 9.33 10.17v17.19h-7.5v-15.87c.099-.6737.047-1.3611-.153-2.0122-.199-.6511-.541-1.2497-1.001-1.7522-.459-.5026-1.025-.8967-1.655-1.1536-.631-.257-1.311-.3704-1.991-.332-.719-.029-1.436.0964-2.103.3677s-1.268.6823-1.762 1.2053c-.495.523-.872 1.1459-1.105 1.8267-.234.6809-.319 1.4038-.25 2.1203zm31.32-15.87c-5.34.51-10.14 2.34-10.14 8.34 0 5.34 3.81 8.04 8.97 8.04 1.585.1225 3.172-.2141 4.572-.9695 1.399-.7555 2.551-1.8978 3.318-3.2905h.21v3.75h7.11v-18.24c0-6.45-5.46-9.15-11.46-9.15-6.48 0-10.71 3.09-11.76 8.01l6.93.57c.336-.9739.996-1.8032 1.869-2.3492.874-.546 1.908-.7757 2.931-.6508 2.55 0 3.99 1.29 3.99 3.51 0 1.77-1.83 1.98-6.54 2.43zm6.6 3.21v3c-.042.6902-.221 1.3652-.527 1.9852s-.733 1.1726-1.255 1.6253c-.523.4528-1.131.7965-1.788 1.0111s-1.351.2956-2.04.2384c-2.31 0-3.96-1.05-3.96-3.15s1.74-3.15 4.38-3.51c1.779-.146 3.527-.5502 5.19-1.2zm24.66 12.66h7.62l-.12-15.6c-.083-.7091-.011-1.4276.21-2.1064s.586-1.3017 1.071-1.8261c.484-.5243 1.076-.9377 1.736-1.2117.659-.274 1.37-.4022 2.083-.3758.678-.0329 1.356.0842 1.984.343s1.191.6528 1.65 1.1542c.458.5013.8 1.0975 1.002 1.7462.201.6487.257 1.3338.164 2.0066v15.87h7.5v-17.19c0-6.3-3.69-10.17-9.33-10.17-1.722-.1063-3.434.3319-4.893 1.2527-1.459.9207-2.592 2.2772-3.237 3.8773h-.3v-4.77h-7.14z" fill="#fff"/><path d="m399.9 15.0482h-7.14l-.03 27h7.5v-16.2c-.062-.6192.004-1.2445.194-1.837.191-.5924.501-1.1393.912-1.6066.411-.4672.914-.8448 1.477-1.1091.563-.2644 1.175-.4098 1.797-.4273.567-.0244 1.133.0735 1.659.2869.525.2134.999.5373 1.389.9498s.686.904.87 1.4412c.183.5371.248 1.1073.192 1.6721v16.83h7.26v-16.5c-.065-.6024.001-1.2116.192-1.7865s.503-1.1021.916-1.5458c.412-.4438.915-.7937 1.474-1.0263.56-.2325 1.163-.3421 1.768-.3214.583-.0261 1.165.0753 1.705.2969.541.2217 1.026.5584 1.423.9867.397.4282.696.9378.876 1.4933.18.5554.236 1.1434.166 1.7231v16.68h7.5v-18c.059-1.9813-.559-3.9235-1.751-5.5072s-2.887-2.7146-4.807-3.2068c-1.92-.4923-3.951-.3165-5.757.4985-1.807.8149-3.283 2.2204-4.185 3.9855h-.42c-.455-1.5659-1.432-2.9288-2.77-3.8621-1.337-.9333-2.953-1.3807-4.58-1.2679-1.637-.0735-3.254.3872-4.607 1.3124-1.352.9253-2.368 2.2651-2.893 3.8176h-.33zm-52.5-.36c-8.19 0-13.23 5.67-13.23 13.95 0 8.22 4.95 13.92 13.38 13.92 7.14 0 11.67-4.2 12-10.41h-7.05c-.085 1.2386-.643 2.3972-1.559 3.2351s-2.12 1.2909-3.361 1.2649c-3.48 0-5.76-3.09-5.76-8.1s2.28-8.01 5.76-8.01c1.241-.026 2.445.4269 3.361 1.2649.916.8379 1.474 1.9964 1.559 3.2351h6.9c-.21-6.24-4.95-10.35-12-10.35zm-23.659 20.6295c-.787.7812-1.233 1.8418-1.241 2.9505-.004.554.102 1.1034.311 1.6165.209.513.518.9795.909 1.3727.39.3932.854.7053 1.366.9182.511.213 1.06.3226 1.614.3226 1.114 0 2.182-.4425 2.97-1.2302.788-.7876 1.23-1.8559 1.23-2.9698s-.442-2.1822-1.23-2.9699c-.788-.7876-1.856-1.2301-2.97-1.2301-1.109-.0001-2.172.4383-2.959 1.2195zm38.539-6.6795c0-8.37 5.1-13.95 13.29-13.95s13.26 5.58 13.26 13.95-5.07 13.92-13.26 13.92-13.29-5.58-13.29-13.92zm18.96-.0148c-.004-4.7025-1.954-8.1752-5.64-8.1752-3.69 0-5.73 3.48-5.73 8.19s1.95 8.16 5.73 8.16c3.776 0 5.636-3.4726 5.64-8.1748z" fill="#b1b8c7"/></g></g></svg>

<svg width="432" height="48" viewBox="0 0 432 48" fill="none" xmlns="http://www.w3.org/2000/svg">
	<g clip-path="url(#clip0)">
		<path d="M4.10706 17.4439L1.91707 19.6339C1.31092 20.2162 0.828669 20.915 0.499237 21.6882C0.169806 22.4615 0 23.2934 0 24.1339C0 24.9744 0.169806 25.8063 0.499237 26.5796C0.828669 27.3529 1.31092 28.0516 1.91707 28.6339L19.56 46.451C19.9782 46.8788 20.4649 47.2336 21 47.501V25.9039L4.10706 17.4439Z" fill="#3D89F5"/>
		<path d="M43.8929 17.4439L46.0829 19.6339C46.6891 20.2162 47.1713 20.915 47.5008 21.6882C47.8302 22.4615 48 23.2934 48 24.1339C48 24.9744 47.8302 25.8063 47.5008 26.5796C47.1713 27.3529 46.6891 28.0516 46.0829 28.6339L28.44 46.451C28.0218 46.8788 27.5351 47.2336 27 47.501V25.9039L43.8929 17.4439Z" fill="#1656B9"/>
		<path d="M39.6569 12.9739L28.6169 1.90391C28.0324 1.30152 27.333 0.822593 26.56 0.495552C25.787 0.168511 24.9562 0 24.1169 0C23.2776 0 22.4467 0.168511 21.6738 0.495552C20.9008 0.822593 20.2013 1.30152 19.6169 1.90391L8.54688 12.9739L24.0569 20.7139L39.6569 12.9739Z" fill="#85B5F8"/>
		<path fill-rule="evenodd" class="logomark-color" clip-rule="evenodd" d="M279.84 7.75814C279.792 6.94862 279.988 6.14332 280.403 5.4465C280.818 4.74969 281.432 4.19344 282.166 3.84978C282.901 3.50613 283.722 3.39089 284.523 3.51899C285.323 3.6471 286.067 4.01264 286.658 4.56829C287.248 5.12394 287.659 5.84412 287.835 6.63557C288.012 7.42702 287.947 8.2533 287.649 9.00742C287.351 9.76154 286.833 10.4088 286.163 10.8653C285.493 11.3219 284.701 11.5667 283.89 11.5681C283.374 11.5841 282.86 11.4983 282.377 11.3154C281.894 11.1326 281.451 10.8563 281.075 10.5025C280.699 10.1486 280.396 9.72414 280.185 9.25325C279.973 8.78236 279.855 8.27431 279.84 7.75814ZM280.14 15.0481H287.61V42.0481H280.14V15.0481ZM80.4 6.04814H66V42.0481H81.42C89.49 42.0481 93.81 37.8181 93.81 32.0881C93.916 29.8806 93.1415 27.7212 91.6565 26.0843C90.1715 24.4474 88.0975 23.4669 85.89 23.3581V22.9981C87.7284 22.7151 89.4016 21.7745 90.5989 20.351C91.7962 18.9275 92.4362 17.1179 92.4 15.2581C92.4 9.88814 88.35 6.04814 80.4 6.04814ZM84.69 16.4881C84.69 19.3381 82.26 21.0481 79.26 21.0481L73.5 21.1381V12.1381H79.38C82.77 12.1381 84.69 13.6381 84.69 16.4881ZM85.8 31.2781C85.8 33.9781 84.06 35.7481 79.8 35.7481H73.5V26.2081H79.8C80.5347 26.1019 81.2836 26.1526 81.9972 26.357C82.7108 26.5615 83.373 26.9149 83.94 27.394C84.507 27.8731 84.966 28.4671 85.2866 29.1366C85.6072 29.8061 85.7822 30.536 85.8 31.2781ZM97.5 42.0481H105.09L104.97 6.04814H97.5V42.0481ZM109.02 28.6382C109.02 20.2682 114.12 14.6881 122.31 14.6881C130.5 14.6881 135.6 20.2682 135.6 28.6382C135.6 37.0082 130.5 42.5582 122.31 42.5582C114.12 42.5582 109.02 36.9782 109.02 28.6382ZM127.98 28.6233C127.976 23.9209 126.026 20.4481 122.34 20.4481C118.65 20.4481 116.61 23.9282 116.61 28.6382C116.61 33.3482 118.56 36.7981 122.34 36.7981C126.116 36.7981 127.976 33.3256 127.98 28.6233ZM151.68 14.6881C143.49 14.6881 138.42 20.3582 138.42 28.6382C138.42 36.8582 143.4 42.5582 151.68 42.5582C158.79 42.5582 163.32 38.3582 163.68 32.1482H156.6C156.523 33.3842 155.971 34.5426 155.06 35.3812C154.148 36.2198 152.948 36.6738 151.71 36.6482C148.2 36.6482 145.95 33.5582 145.95 28.5482C145.95 23.5382 148.23 20.5382 151.71 20.5382C152.948 20.5125 154.148 20.9665 155.06 21.8051C155.971 22.6437 156.523 23.8021 156.6 25.0382H163.68C163.44 18.7982 158.73 14.6881 151.68 14.6881ZM167.61 6.04814H175.11V25.2781H175.5L184.17 15.0481H192.75L182.73 26.7481L193.26 42.0481H184.5L177.12 31.1581L175.11 33.4681V42.0481H167.61V6.04814ZM206.49 14.6881C198.3 14.6881 193.23 20.3582 193.23 28.6382C193.23 36.8582 198.21 42.5582 206.55 42.5582C213.69 42.5582 218.19 38.3582 218.55 32.1482H211.5C211.415 33.3868 210.857 34.5453 209.941 35.3833C209.025 36.2212 207.821 36.6742 206.58 36.6482C203.07 36.6482 200.82 33.5582 200.82 28.5482C200.82 23.5382 203.1 20.5382 206.58 20.5382C207.821 20.5121 209.025 20.9651 209.941 21.803C210.857 22.641 211.415 23.7995 211.5 25.0382H218.49C218.28 18.7982 213.54 14.6881 206.49 14.6881ZM229.92 42.0481H222.45V6.04814H229.71V19.8181H230.04C230.651 18.2062 231.767 16.8352 233.222 15.9105C234.676 14.9858 236.391 14.5569 238.11 14.6881C243.72 14.6881 247.44 18.5281 247.44 24.8581V42.0481H239.94V26.1781C240.039 25.5044 239.987 24.817 239.787 24.1659C239.588 23.5148 239.246 22.9162 238.786 22.4137C238.327 21.9111 237.761 21.517 237.131 21.2601C236.5 21.0031 235.82 20.8897 235.14 20.9281C234.421 20.8991 233.704 21.0245 233.037 21.2958C232.37 21.5671 231.769 21.9781 231.275 22.5011C230.78 23.0241 230.403 23.647 230.17 24.3278C229.936 25.0087 229.851 25.7316 229.92 26.4481V42.0481ZM261.24 26.1781C255.9 26.6881 251.1 28.5181 251.1 34.5181C251.1 39.8581 254.91 42.5581 260.07 42.5581C261.655 42.6806 263.242 42.344 264.642 41.5886C266.041 40.8331 267.193 39.6908 267.96 38.2981H268.17V42.0481H275.28V23.8081C275.28 17.3581 269.82 14.6581 263.82 14.6581C257.34 14.6581 253.11 17.7481 252.06 22.6681L258.99 23.2381C259.326 22.2642 259.986 21.4349 260.859 20.8889C261.733 20.3429 262.767 20.1132 263.79 20.2381C266.34 20.2381 267.78 21.5281 267.78 23.7481C267.78 25.5181 265.95 25.7281 261.24 26.1781ZM267.84 29.3881V32.3881C267.798 33.0783 267.619 33.7533 267.313 34.3733C267.007 34.9933 266.58 35.5459 266.058 35.9986C265.535 36.4514 264.927 36.7951 264.27 37.0097C263.613 37.2243 262.919 37.3053 262.23 37.2481C259.92 37.2481 258.27 36.1981 258.27 34.0981C258.27 31.9981 260.01 30.9481 262.65 30.5881C264.429 30.4421 266.177 30.0379 267.84 29.3881ZM292.5 42.0481H300.12L300 26.4481C299.917 25.739 299.989 25.0205 300.21 24.3417C300.431 23.6629 300.796 23.04 301.281 22.5156C301.765 21.9913 302.357 21.5779 303.017 21.3039C303.676 21.0299 304.387 20.9017 305.1 20.9281C305.778 20.8952 306.456 21.0123 307.084 21.2711C307.712 21.5299 308.275 21.9239 308.734 22.4253C309.192 22.9266 309.534 23.5228 309.736 24.1715C309.937 24.8202 309.993 25.5053 309.9 26.1781V42.0481H317.4V24.8581C317.4 18.5581 313.71 14.6881 308.07 14.6881C306.348 14.5818 304.636 15.02 303.177 15.9408C301.718 16.8615 300.585 18.218 299.94 19.8181H299.64V15.0481H292.5V42.0481Z" fill="white"/>
		<path fill-rule="evenodd" clip-rule="evenodd" d="M399.9 15.0482H392.76L392.73 42.0482H400.23V25.8482C400.168 25.229 400.234 24.6037 400.424 24.0112C400.615 23.4188 400.925 22.8719 401.336 22.4046C401.747 21.9374 402.25 21.5598 402.813 21.2955C403.376 21.0311 403.988 20.8857 404.61 20.8682C405.177 20.8438 405.743 20.9417 406.269 21.1551C406.794 21.3685 407.268 21.6924 407.658 22.1049C408.048 22.5174 408.344 23.0089 408.528 23.5461C408.711 24.0832 408.776 24.6534 408.72 25.2182V42.0482H415.98V25.5482C415.915 24.9458 415.981 24.3366 416.172 23.7617C416.363 23.1868 416.675 22.6596 417.088 22.2159C417.5 21.7721 418.003 21.4222 418.562 21.1896C419.122 20.9571 419.725 20.8475 420.33 20.8682C420.913 20.8421 421.495 20.9435 422.035 21.1651C422.576 21.3868 423.061 21.7235 423.458 22.1518C423.855 22.58 424.154 23.0896 424.334 23.6451C424.514 24.2005 424.57 24.7885 424.5 25.3682V42.0482H432V24.0482C432.059 22.0669 431.441 20.1247 430.249 18.541C429.057 16.9573 427.362 15.8264 425.442 15.3342C423.522 14.8419 421.491 15.0177 419.685 15.8327C417.878 16.6476 416.402 18.0531 415.5 19.8182H415.08C414.625 18.2523 413.648 16.8894 412.31 15.9561C410.973 15.0228 409.357 14.5754 407.73 14.6882C406.093 14.6147 404.476 15.0754 403.123 16.0006C401.771 16.9259 400.755 18.2657 400.23 19.8182H399.9V15.0482ZM347.4 14.6882C339.21 14.6882 334.17 20.3582 334.17 28.6382C334.17 36.8582 339.12 42.5582 347.55 42.5582C354.69 42.5582 359.22 38.3582 359.55 32.1482H352.5C352.415 33.3868 351.857 34.5454 350.941 35.3833C350.025 36.2212 348.821 36.6742 347.58 36.6482C344.1 36.6482 341.82 33.5582 341.82 28.5482C341.82 23.5382 344.1 20.5382 347.58 20.5382C348.821 20.5122 350.025 20.9651 350.941 21.8031C351.857 22.641 352.415 23.7995 352.5 25.0382H359.4C359.19 18.7982 354.45 14.6882 347.4 14.6882ZM323.741 35.3177C322.954 36.0989 322.508 37.1595 322.5 38.2682C322.496 38.8222 322.602 39.3716 322.811 39.8847C323.02 40.3977 323.329 40.8642 323.72 41.2574C324.11 41.6506 324.574 41.9627 325.086 42.1756C325.597 42.3886 326.146 42.4982 326.7 42.4982C327.814 42.4982 328.882 42.0557 329.67 41.268C330.458 40.4804 330.9 39.4121 330.9 38.2982C330.9 37.1843 330.458 36.116 329.67 35.3283C328.882 34.5407 327.814 34.0982 326.7 34.0982C325.591 34.0981 324.528 34.5365 323.741 35.3177ZM362.28 28.6382C362.28 20.2682 367.38 14.6882 375.57 14.6882C383.76 14.6882 388.83 20.2682 388.83 28.6382C388.83 37.0082 383.76 42.5582 375.57 42.5582C367.38 42.5582 362.28 36.9782 362.28 28.6382ZM381.24 28.6234C381.236 23.9209 379.286 20.4482 375.6 20.4482C371.91 20.4482 369.87 23.9282 369.87 28.6382C369.87 33.3482 371.82 36.7982 375.6 36.7982C379.376 36.7982 381.236 33.3256 381.24 28.6234Z" fill="#B1B8C7"/>
	</g>
	<defs>
		<clipPath id="clip0">
			<rect width="432" height="48" fill="white"/>
		</clipPath>
	</defs>
</svg>
